material/.icons/material/microphone-outline.svg

<svg xmlns="http://www.w3.org/2000/svg" viewBox="0 0 24 24"><path d="M17.3 11c0 3-2.54 5.1-5.3 5.1S6.7 14 6.7 11H5c0 3.41 2.72 6.23 6 6.72V21h2v-3.28c3.28-.49 6-3.31 6-6.72m-8.2-6.1c0-.66.54-1.2 1.2-1.2.66 0 1.2.54 1.2 1.2l-.01 6.2c0 .66-.53 1.2-1.19 1.2-.66 0-1.2-.54-1.2-1.2M12 14a3 3 0 003-3V5a3 3 0 00-3-3 3 3 0 00-3 3v6a3 3 0 003 3z"/></svg>

<?xml version="1.0" encoding="UTF-8"?><!DOCTYPE svg PUBLIC "-//W3C//DTD SVG 1.1//EN" "http://www.w3.org/Graphics/SVG/1.1/DTD/svg11.dtd"><svg xmlns="http://www.w3.org/2000/svg" xmlns:xlink="http://www.w3.org/1999/xlink" version="1.1" id="mdi-microphone-outline" width="24" height="24" viewBox="0 0 24 24"><path d="M17.3,11C17.3,14 14.76,16.1 12,16.1C9.24,16.1 6.7,14 6.7,11H5C5,14.41 7.72,17.23 11,17.72V21H13V17.72C16.28,17.23 19,14.41 19,11M10.8,4.9C10.8,4.24 11.34,3.7 12,3.7C12.66,3.7 13.2,4.24 13.2,4.9L13.19,11.1C13.19,11.76 12.66,12.3 12,12.3C11.34,12.3 10.8,11.76 10.8,11.1M12,14A3,3 0 0,0 15,11V5A3,3 0 0,0 12,2A3,3 0 0,0 9,5V11A3,3 0 0,0 12,14Z" /></svg>
